X: 1
T: The Devil Is Dead
R: barndance
M: 4/4
L: 1/8
K: Gmaj
D2DE GABA|GE~E2 cEGE|D2DE GABc|1 dedB (3ABA GE:|2 dedB (3ABA G2||
|:d2dc Bcd2|e2ed cde2|d2dc BcdB|1 GABG (3ABA GB:|2 GABG (3ABA GE||
"variations"
|:D2DE GABA|GE~E2 cEGE|D2DE GABc|1 dedB (3ABA GE:|2 dedB (3ABA GB||
d2dc Bcd2|e2ed cde2|d2dc BcdB|GABG A2GB|
d2dc Bcd2|e2ed cdec|degd egdB|GABG A2GE||


Tune 1990	Setting 20605

